X:1
T:Sonate K77
T:Sonate K77 
T:Menuet
T:Domenico Scarlatti
C:Domenico Scarlatti
%%score ( 1 2 )
L:1/8
Q:1/4=85
M:3/8
K:G
V:1 treble-8 nm="Classical Guitar" snm="Guit."
V:2 treble-8 
V:1
 !0!e/!0!B/!3!E!2!c- | c/!4!^A/!0!B!4!=a- | a/!2!f/!3!b/!0!e/!2!f/!3!^d/ | %3
 !4!c'>"^BV"!1!e!2!=f/!3!^a/ |"^BV"{^a} b>"^BIII"!2!^d!4!e/!3!^g/ | %5
{!3!^g} !4!a>"^BII"!1!^c!3!^d/!1!f/ |{!1!f} !2!g>!0!B!0!e/!4!d/ | %7
"^BV" !1!c/!4!B/!3!A/!1!G/!4!=F/!3!E/ |{!3!E} !4!=F>!2!=f!1!a/!4!g/ | %9
 !2!=f/!1!e/!3!d/!1!c/!4!B/!3!A/ |"^BV" !3!A/!2!^G/!3!A/!1!a/!4!c'/!3!b/ | %11
 !1!a/!4!g/!2!=f/!1!e/!4!^d/!4!e/- | e/"^BVII"!2!^d/!4!e/!1!f/!3!B/f/- | %13
"^BVII" f/!4!e/!1!f/!2!g/!3!B/!2!g/- | g/!1!f/!2!g/!4!a/!3!B/!4!a/- | a/!2!g/!4!a/!1!b/!3!B/b/ | %16
"^BVII" !4!a/!2!g/!1!f/!3!e/!2!^d/!3!e/ | !1!!1!f/!4!c/!0!B/!4!A/!0!G/!1!F/ | !0!G/!0!e/!3!F!4!^d | %19
 !0!e3 :: !0!e/!0!B/!1!E!2!d- | d/!0!B/!2!c"^BV"a- |"^BV" a/!2!=f/!3!d/!1!c/!4!B/!4!A/ | %23
{!4!A} !2!^G>!4!B!1!c/!1!e/ |{e} !2!=f>!2!A!3!_B/!4!^d/ |{!4!^d} e>!1!^G!1!A/!2!^c/ | %26
{!2!^c} !4!d>!4!F!1!^G/!0!B/ |{!0!B} !1!c>!1!A!4!a/!2!g/ | !1!f/!0!e/!3!d/!1!c/!0!B/!4!^A/ | %29
{!4!^A} !0!B>!0!B!0!e/!4!d/ |"^BV" !1!c/!4!B/!3!A/!1!G/!4!=F/!3!E/- | E/!1!^D/!3!E/!4!F/B,/F/- | %32
"^BVII" F/!1!E/!3!F/!4!G/B,/G/- | G/!3!F/!4!G/!1!A/B,/A/- |"^BVII" A/!4!G/!1!A/!3!B/B,/B/ | %35
 !1!A/!4!G/!3!F/!1!E/!1!^D/!2!E/ | !4!F/!0!G/!3!A/!0!B/!1!c/!2!A/ | %37
 !0!e/!1!f/!2!g/!4!a/!4!b/!0!e/ | !4!a/!2!f/!2!gT!2-3!f | !0!e3 :| %40
V:2
 !0!E,2 !0!A, | !1!^D2 !1!B, | !0!E,2 !1!B, | !1!B,!1!A,A, | A,!1!G,G, | !1!G,!1!F,F, | %6
 F,!0!E,!0!E, | !1!A,3 | !1!A, z z | !1!A,3 | !1!A, z z | !1!A, z z | B, z z | B, z z | !1!B, z z | %15
 B, z z | !1!B, z z | z z !3!^D | !4!E!0!A,!1!B, | !0!E,3 :: !0!E,2 !3!^G, | !0!A,2 A, | !1!D3 | %23
 !3!E!3!EE | E!0!D!0!D | !0!D!3!C!3!C | !3!C!2!B,!2!B, | !2!B,!0!A,!0!A, | !0!D!0!D!2!F, | %29
 !3!G,!3!G,!1!G, | !1!A,A,A, | !2!B, z z | B, z z | B, z z | B, z z | !1!B, z z | z !2!B,!0!A, | %37
 !3!G,!0!E,!1!G, | !0!A,!1!B,!1!B, | !0!E,3 :| %40

